assets/img/braze_icons/bell-plus.svg

<svg fill="none" height="24" viewBox="0 0 24 24" width="24" xmlns="http://www.w3.org/2000/svg"><g fill="#801ed7"><path d="m19 2c0-.55228-.4477-1-1-1s-1 .44772-1 1v2h-2c-.5523 0-1 .44772-1 1s.4477 1 1 1h2v2c0 .55228.4477 1 1 1s1-.44772 1-1v-2h2c.5523 0 1-.44772 1-1s-.4477-1-1-1h-2z"/><path d="m15.0057 1.81334c.0048-.07858-.0366-.15292-.1082-.1855-.9014-.40987-1.8882-.62784-2.8975-.62784-1.8565 0-3.63701.7375-4.94977 2.05025-1.31275 1.31276-2.05025 3.09323-2.05025 4.94975 0 2.9127-.732 4.8439-1.49938 6.0771l-.0118.019c-.35732.5742-.6398 1.0282-.83023 1.3586-.09542.1655-.18235.325-.24671.4668-.03213.0707-.06807.1575-.09617.2518-.0233.0782-.0677.2454-.05106.449.01119.1368.03909.3705.17324.612s.31788.3887.42812.4704c.25029.1857.53772.2282.63365.2423l.00443.0007c.14741.0218.31468.0327.48344.0392.33517.0131.79916.0131 1.37617.0131h13.27212c.577 0 1.0415 0 1.3767-.0131.1687-.0065.336-.0174.4834-.0392l.0044-.0007c.096-.0141.3834-.0566.6337-.2423.1102-.0817.2939-.2289.4281-.4704.1341-.2415.162-.4752.1732-.612.0167-.2036-.0277-.3708-.051-.449-.0281-.0943-.0641-.1811-.0962-.2518-.0644-.1418-.1513-.3013-.2467-.4668-.1904-.3304-.4728-.7842-.83-1.3582l-.012-.0194c-.3768-.6055-.745-1.3792-1.0223-2.3548-.099-.3485-.1486-.5227-.2155-.6037-.0778-.094-.1089-.1155-.2244-.1547-.0995-.0338-.3245-.0143-.7744.0248-.0866.0075-.1743.0113-.2628.0113-1.6569 0-3-1.34315-3-3-1.6569 0-3-1.34315-3-3 0-1.5944 1.2438-2.89829 2.814-2.99433.1025-.00627.1854-.08983.1917-.19233z"/><path d="m8.60442 20.3383c.36546-.4141.9974-.4535 1.41148-.088.5294.4673 1.2226.7497 1.9841.7497s1.4546-.2824 1.9841-.7497c.414-.3655 1.046-.3261 1.4114.088.3655.414.3261 1.046-.088 1.4114-.8808.7775-2.0401 1.2503-3.3075 1.2503s-2.42677-.4728-3.30758-1.2503c-.41407-.3654-.45347-.9974-.088-1.4114z"/></g></svg>

<svg width="24" height="24" viewBox="0 0 24 24" fill="none" xmlns="http://www.w3.org/2000/svg">
<path d="M19 2C19 1.44772 18.5523 1 18 1C17.4477 1 17 1.44772 17 2V4H15C14.4477 4 14 4.44772 14 5C14 5.55228 14.4477 6 15 6H17V8C17 8.55228 17.4477 9 18 9C18.5523 9 19 8.55228 19 8V6H21C21.5523 6 22 5.55228 22 5C22 4.44772 21.5523 4 21 4H19V2Z" fill="#801ED7"/>
<path d="M15.0057 1.81334C15.0105 1.73476 14.9691 1.66042 14.8975 1.62784C13.9961 1.21797 13.0093 1 12 1C10.1435 1 8.36299 1.7375 7.05023 3.05025C5.73748 4.36301 4.99998 6.14348 4.99998 8C4.99998 10.9127 4.26798 12.8439 3.5006 14.0771L3.4888 14.0961C3.13148 14.6703 2.849 15.1243 2.65857 15.4547C2.56315 15.6202 2.47622 15.7797 2.41186 15.9215C2.37973 15.9922 2.34379 16.079 2.31569 16.1733C2.29239 16.2515 2.24799 16.4187 2.26463 16.6223C2.27582 16.7591 2.30372 16.9928 2.43787 17.2343C2.57202 17.4758 2.75575 17.623 2.86599 17.7047C3.11628 17.8904 3.40371 17.9329 3.49964 17.947L3.50407 17.9477C3.65148 17.9695 3.81875 17.9804 3.98751 17.9869C4.32268 18 4.78667 18 5.36368 18H18.6358C19.2128 18 19.6773 18 20.0125 17.9869C20.1812 17.9804 20.3485 17.9695 20.4959 17.9477L20.5003 17.947C20.5963 17.9329 20.8837 17.8904 21.134 17.7047C21.2442 17.623 21.4279 17.4758 21.5621 17.2343C21.6962 16.9928 21.7241 16.7591 21.7353 16.6223C21.752 16.4187 21.7076 16.2515 21.6843 16.1733C21.6562 16.079 21.6202 15.9922 21.5881 15.9215C21.5237 15.7797 21.4368 15.6202 21.3414 15.4547C21.151 15.1243 20.8686 14.6705 20.5114 14.0965L20.4994 14.0771C20.1226 13.4716 19.7544 12.6979 19.4771 11.7223C19.3781 11.3738 19.3285 11.1996 19.2616 11.1186C19.1838 11.0246 19.1527 11.0031 19.0372 10.9639C18.9377 10.9301 18.7127 10.9496 18.2628 10.9887C18.1762 10.9962 18.0885 11 18 11C16.3431 11 15 9.65685 15 8C13.3431 8 12 6.65685 12 5C12 3.4056 13.2438 2.10171 14.814 2.00567C14.9165 1.9994 14.9994 1.91584 15.0057 1.81334Z" fill="#801ED7"/>
<path d="M8.60442 20.3383C8.96988 19.9242 9.60182 19.8848 10.0159 20.2503C10.5453 20.7176 11.2385 21 12 21C12.7615 21 13.4546 20.7176 13.9841 20.2503C14.3981 19.8848 15.0301 19.9242 15.3955 20.3383C15.761 20.7523 15.7216 21.3843 15.3075 21.7497C14.4267 22.5272 13.2674 23 12 23C10.7326 23 9.57323 22.5272 8.69242 21.7497C8.27835 21.3843 8.23895 20.7523 8.60442 20.3383Z" fill="#801ED7"/>
</svg>
